!!!OTL: Vergiss mein nicht (2-89) S. 260
!!!id: P0960
**kern
*clefG2
*k[f#c#]
*D:
{8d
8f#
=1
*M3/4
8a
8f#
8d
8d
8g
8b
=2
8b
8a
4a
8a
8b
=3
*M2/4
4dd
4ee}
=4
{8d
8a
8b
8cc#
=5yy
8d
=6
4dd
4ee
=7yy
8d
8dd
8cc#
8b
=8yy
8d
=9
8a}
=10
{8dd
8b
8g
=11
8a
8b
4a
=12yy
8d
8g
8e
8a
=13yy
8d
=14
2f#}
==
*-
!!!minrhy: 8
!!!meters: 2/4 3/4 ]  ZZ[3
!!!cut: Vergiss mein nicht (2-89) S. 260
!!!reg: Lothringen
!!!trd: PINCK, Louis: Verklingende Weisen, Bd 2, Metz 1928
!!!rhy1: XX  XXXXXX  XXX_XX  X_X_
!!!rhy2: (XXX)  X_X_(XXX)  X
!!!key: P0960  08  D 2/4 3/4 ]  ZZ[3
!!!mod: HEPTATONIK IONISCH]  AMBITUS[9
!!!kad: +253
!!!akz: 56+1_+15_53_
!!!fot: 'a__b__c__
!!!for: 'a__b__c__
!!!fok: '~a_^__Sd_
!! PHRAS[AUFTAKTIG]
!!!fkt: Treue
!! LOTH VKL
!! PR[37] 2K[5] 2G[8] 3K[3] 3G[2] 4A[10] 4Ü[0] 5A[0] 6K[0] 6G[0]
!! 7K[0] 7G[0] 8A[0] MEHR[0] SI[29] ABS[91] SR[13] SP[15]
!! ST[31] 2k[7] 2g[16] 3k[8] 3g[0] 4d[2] 4ü[0] 5d[0] 6k[0] 6g[1]
!! 7k[0] 7g[0] 8d[0] mehr[0] si[34] dm[-5] sr[23] sp[11]
!! 1F[4] 2F[26] 3F[54] 4F[6] LF[0] 2P[0] 3P[6] 4P[3] TRI[3] DF[6] AB[93]
!! TF[0] U3K[0] U3[0] U4[0] U4Ü[0] U5[17] U6K[0] U6[14] U7K[0] U7[17]
!! N1[14] N2K[0] N2[22] N3K[0] N3[8] N4[5] N4Ü[0] N5[2] N6K[0] N6[0]
!!!n7k: 0] N7[0] O1[0] O2K[0] O2[0] O3K[0] O3[0] HÖ[0
